icon-themes/sifr_svg/cmd/sc_dbviewtablenames.svg

<svg viewBox="0 0 16 16" xmlns="http://www.w3.org/2000/svg"><path d="m1 0v15h15v-15zm2 2h3v2h-3zm4 0h3v2h-3zm4 0h3v2h-3zm-8 3h3v2h-3zm4 0h3v2h-3zm4 0h3v2h-3zm-8 3h3v2h-3zm4 0h3v2h-3zm4 0h3v2h-3zm-8 3h3v2h-3zm4 0h3v2h-3zm4 0h3v2h-3z" fill="#555753"/></svg>

<svg xmlns="http://www.w3.org/2000/svg" viewBox="0 0 16 16">
  <path
     style="fill:#555753"
     d="M 1 0 L 1 15 L 16 15 L 16 0 L 1 0 z M 3 2 L 6 2 L 6 4 L 3 4 L 3 2 z M 7 2 L 10 2 L 10 4 L 7 4 L 7 2 z M 11 2 L 14 2 L 14 4 L 11 4 L 11 2 z M 3 5 L 6 5 L 6 7 L 3 7 L 3 5 z M 7 5 L 10 5 L 10 7 L 7 7 L 7 5 z M 11 5 L 14 5 L 14 7 L 11 7 L 11 5 z M 3 8 L 6 8 L 6 10 L 3 10 L 3 8 z M 7 8 L 10 8 L 10 10 L 7 10 L 7 8 z M 11 8 L 14 8 L 14 10 L 11 10 L 11 8 z M 3 11 L 6 11 L 6 13 L 3 13 L 3 11 z M 7 11 L 10 11 L 10 13 L 7 13 L 7 11 z M 11 11 L 14 11 L 14 13 L 11 13 L 11 11 z "
     />
</svg>
